public/svg/arrow2.svg

<svg width="71" height="136" viewBox="0 0 71 136" fill="none" xmlns="http://www.w3.org/2000/svg">
<path d="M56.7867 5.53917L55.9367 5.31917L54.9367 5.04917L54.2667 4.88917L53.5267 4.77917C50.4288 4.24843 47.2599 4.2891 44.1767 4.89917C41.9573 5.32245 39.7839 5.95873 37.6867 6.79917C35.2154 7.81473 32.845 9.0602 30.6067 10.5192C25.2251 14.0712 20.5856 18.6359 16.9467 23.9592C14.8714 26.944 13.3661 30.2869 12.5067 33.8192C12.4267 34.2692 12.3067 34.7492 12.2467 35.1792C12.1867 35.6092 12.1067 36.1792 12.0767 36.5992C12.0103 37.5413 12.0103 38.487 12.0767 39.4292C12.1906 41.3627 12.6091 43.2662 13.3167 45.0692C13.6805 45.9774 14.1257 46.851 14.6467 47.6792C15.1694 48.5152 15.7759 49.2959 16.4567 50.0092C16.7988 50.3613 17.1593 50.6951 17.5367 51.0092C17.9352 51.326 18.3564 51.6135 18.7967 51.8692C19.6484 52.3689 20.5632 52.7523 21.5167 53.0092C23.4699 53.5675 25.5306 53.6362 27.5167 53.2092C28.4989 52.9765 29.4444 52.6097 30.3267 52.1192C31.1932 51.6134 31.9703 50.968 32.6267 50.2092C33.3048 49.5243 33.7911 48.6733 34.0368 47.7414C34.2825 46.8095 34.279 45.8293 34.0267 44.8992C33.6843 43.9851 33.129 43.1657 32.4067 42.5092C32.0341 42.1442 31.6328 41.8098 31.2067 41.5092L30.9267 41.3192L30.5467 41.1092L29.7967 40.6792C27.8289 39.7631 25.6953 39.2571 23.5257 39.1917C21.3562 39.1264 19.196 39.5032 17.1767 40.2992C15.0922 41.0581 13.1614 42.1861 11.4767 43.6292L10.8667 44.1892L10.7167 44.3292L10.6367 44.4092L10.3267 44.7292L9.70667 45.3692L9.18667 45.9992C8.47592 46.8619 7.82761 47.7742 7.24667 48.7292C4.96575 52.7082 3.61852 57.1534 3.30667 61.7292C3.20667 62.8592 3.16667 64.0492 3.17667 65.1392C3.17667 65.7292 3.17667 66.3492 3.23667 66.9192C3.29667 67.4892 3.30667 68.0292 3.36667 68.5992C3.5906 70.8656 4.0429 73.1036 4.71667 75.2792C5.95498 79.5525 8.34972 83.4007 11.6367 86.3992C12.0267 86.7792 12.4767 87.0692 12.8967 87.3992L13.0567 87.5192L13.1367 87.5792C13.1367 87.5792 13.2667 87.6692 13.1367 87.5792L13.5067 87.8092L14.2467 88.2792C14.4683 88.4263 14.7025 88.5535 14.9467 88.6592L15.6067 88.9792C16.0367 89.1992 16.6067 89.3592 17.0567 89.5592C19.0451 90.2346 21.1373 90.5528 23.2367 90.4992C27.3867 90.4192 31.4667 88.7592 33.7967 85.7192L34.6067 84.5492C34.8214 84.1965 34.9958 83.8208 35.1267 83.4292C35.2222 83.1531 35.2596 82.8604 35.2367 82.5692C35.1939 82.2449 35.0958 81.9303 34.9467 81.6392L34.8067 81.3792L34.7267 81.2492C34.7267 81.2492 34.6267 81.0992 34.7267 81.2492L34.6667 81.1692L34.1867 80.4992C33.9417 80.2144 33.6705 79.9532 33.3767 79.7192C32.7216 79.1811 31.9674 78.7768 31.1567 78.5292C29.4576 78.0089 27.6479 77.9674 25.9267 78.4092C25.0808 78.629 24.2697 78.9655 23.5167 79.4092C23.328 79.5044 23.1475 79.6148 22.9767 79.7392C22.8167 79.8492 22.5867 79.9792 22.4967 80.0792L21.8967 80.5692C21.7167 80.7292 21.5967 80.8592 21.4467 80.9992C18.9696 83.6119 17.3415 86.9134 16.7767 90.4692C16.6167 91.3592 16.4667 92.2392 16.3867 93.1292V93.2992V93.3792C16.3867 93.3792 16.3867 93.2492 16.3867 93.3792V93.7292V94.4392L16.3267 95.8392C16.2805 96.7126 16.2972 97.5882 16.3767 98.4592C16.3662 99.3116 16.4163 100.164 16.5267 101.009C17.402 107.211 19.7434 113.114 23.3567 118.229C26.1533 122.21 29.6338 125.664 33.6367 128.429C34.4867 128.969 35.2767 129.529 36.0567 129.979L38.3067 131.159C38.9561 131.49 39.6238 131.784 40.3067 132.039L41.9967 132.739L45.1967 133.739H45.2767C45.3837 133.767 45.4841 133.816 45.5722 133.883C45.6603 133.951 45.7343 134.034 45.79 134.13C45.8457 134.226 45.882 134.331 45.8969 134.441C45.9118 134.551 45.9049 134.662 45.8767 134.769C45.8484 134.876 45.7994 134.977 45.7324 135.065C45.6653 135.153 45.5816 135.227 45.4859 135.282C45.3903 135.338 45.2846 135.375 45.1749 135.389C45.0652 135.404 44.9537 135.397 44.8467 135.369L41.3967 134.599C38.1893 133.668 35.1168 132.324 32.2567 130.599C27.1067 127.463 22.6994 123.245 19.3394 118.238C15.9795 113.231 13.7471 107.554 12.7967 101.599C12.6281 100.644 12.5246 99.6784 12.4867 98.7092C12.3872 97.7392 12.3504 96.7639 12.3767 95.7892V94.3792V93.6692V93.3092V93.0292V92.8392C12.4667 91.8392 12.6167 90.8392 12.7967 89.8392C13.4867 85.4541 15.508 81.3871 18.5867 78.1892C18.8067 77.9792 19.0567 77.7492 19.2667 77.5692L20.0267 77.0092C20.2799 76.8087 20.5436 76.6218 20.8167 76.4492C21.069 76.2717 21.3329 76.1114 21.6067 75.9692C22.6822 75.3846 23.833 74.9506 25.0267 74.6792C27.4688 74.0749 30.0309 74.1615 32.4267 74.9292C33.6936 75.3314 34.8715 75.973 35.8967 76.8192C36.4509 77.273 36.9539 77.786 37.3967 78.3492L37.8767 79.0192L37.9367 79.0992L38.0767 79.3192L38.2067 79.5492C38.2933 79.7025 38.3767 79.8592 38.4567 80.0192C38.775 80.7272 38.9679 81.4851 39.0267 82.2592C39.0998 83.0765 39.0045 83.9001 38.7467 84.6792C38.5233 85.3475 38.2247 85.9883 37.8567 86.5892C37.5067 87.1292 37.1267 87.6492 36.7567 88.1792C35.1412 90.198 33.0482 91.7823 30.6667 92.7892C28.3217 93.7864 25.8046 94.3163 23.2567 94.3492C20.7046 94.3936 18.166 93.9699 15.7667 93.0992C15.1667 92.8492 14.5767 92.6592 13.9767 92.3492L13.0767 91.8792C12.7895 91.7381 12.5122 91.5777 12.2467 91.3992L11.5067 90.9192L11.1367 90.6792C11.0771 90.6435 11.0202 90.6034 10.9667 90.5592L10.8767 90.4892L10.6867 90.3392C10.1967 89.9392 9.68667 89.5692 9.21667 89.1192C5.51552 85.6348 2.85055 81.1943 1.51667 76.2892C0.816386 73.8914 0.360728 71.4288 0.156667 68.9392C0.0966667 68.3192 0.0866667 67.6792 0.0266667 67.0092C-0.0333333 66.3392 0.0266667 65.8092 0.0266667 65.1992C0.0266667 63.8992 0.116667 62.6992 0.246667 61.4492C0.706528 56.4663 2.2895 51.6525 4.87667 47.3692C5.55669 46.316 6.31199 45.3134 7.13667 44.3692L7.77667 43.6392L8.39667 43.0092L8.70667 42.6892L8.78667 42.6092L8.90667 42.4992L9.08667 42.3392L9.80667 41.7192C11.7487 40.0981 13.9677 38.8412 16.3567 38.0092C18.7026 37.1261 21.2054 36.7361 23.7088 36.8634C26.2121 36.9907 28.6624 37.6327 30.9067 38.7492C33.2473 39.8594 35.0778 41.8186 36.0267 44.2292C36.4458 45.5296 36.4458 46.9288 36.0267 48.2292C35.6439 49.4432 35.0064 50.5614 34.1567 51.5092C33.3381 52.4325 32.3716 53.2132 31.2967 53.8192C30.2335 54.3691 29.0994 54.7695 27.9267 55.0092C25.6385 55.4834 23.2689 55.3872 21.0267 54.7292C18.8783 54.0521 16.9156 52.8874 15.2919 51.3262C13.6682 49.7649 12.4274 47.8494 11.6667 45.7292C10.1764 41.8086 9.89428 37.5315 10.8567 33.4492C11.7679 29.708 13.3649 26.1682 15.5667 23.0092C19.3369 17.5306 24.1359 12.837 29.6967 9.18917C32.0191 7.68774 34.4724 6.39917 37.0267 5.33917C39.2171 4.45614 41.4876 3.78637 43.8067 3.33917C47.1012 2.66811 50.4912 2.61048 53.8067 3.16917L54.6267 3.28917L55.3067 3.44917L56.3067 3.70917L57.1567 3.91917C57.2747 3.9357 57.388 3.97687 57.4891 4.04001C57.5902 4.10315 57.6769 4.18685 57.7435 4.28568C57.8102 4.38451 57.8553 4.49625 57.876 4.61365C57.8966 4.73105 57.8924 4.85148 57.8635 4.96712C57.8346 5.08277 57.7816 5.19104 57.7082 5.2849C57.6347 5.37877 57.5423 5.45613 57.437 5.51196C57.3317 5.5678 57.2158 5.60085 57.0968 5.60899C56.9779 5.61712 56.8586 5.60015 56.7467 5.55917L56.7867 5.53917Z" fill="#C1CEBE"/>
<path d="M56.2371 9.14962C56.932 8.63829 57.5996 8.09087 58.2371 7.50962C58.837 6.96733 59.2851 6.27798 59.5371 5.50962C59.7139 4.70906 59.7645 3.8858 59.6871 3.06962L59.6171 1.76962C59.5829 1.51647 59.5931 1.25929 59.6471 1.00962C59.6471 0.889619 59.7071 0.779619 59.7471 0.659619L59.8171 0.469619C59.8386 0.413839 59.8654 0.360258 59.8971 0.309619L59.9971 0.209619C60.0697 0.11787 60.1668 0.0485324 60.2771 0.00961925C60.3726 -0.00784173 60.471 -0.00146185 60.5634 0.028193C60.6559 0.0578479 60.7396 0.109861 60.8071 0.179619C60.8814 0.257782 60.9332 0.354505 60.9571 0.459619V0.659619L60.8271 0.259619C62.2532 1.81786 63.7798 3.28099 65.3971 4.63962C67.0652 6.04083 68.6325 7.55793 70.0871 9.17962C70.2945 9.41393 70.4038 9.71894 70.3927 10.0316C70.3815 10.3443 70.2506 10.6407 70.0271 10.8596C69.8312 11.0566 69.5734 11.1802 69.2971 11.2096H69.2171C67.0438 11.2096 64.8738 11.1663 62.7071 11.0796C61.6271 11.0196 60.5371 10.9096 59.4571 10.7896C58.3654 10.6693 57.2806 10.4924 56.2071 10.2596C56.1078 10.2191 56.0228 10.1499 55.9629 10.0608C55.9031 9.97178 55.8711 9.86692 55.8711 9.75962C55.8711 9.65232 55.9031 9.54746 55.9629 9.4584C56.0228 9.36935 56.1078 9.30015 56.2071 9.25962C57.2858 9.0633 58.3739 8.92311 59.4671 8.83962C60.5571 8.74962 61.6371 8.70962 62.7271 8.67962C64.8971 8.67962 67.0671 8.67962 69.2371 8.80962L68.3171 10.6796C68.0071 10.2696 67.6971 9.85962 67.3771 9.45962C67.0571 9.05962 66.7171 8.65962 66.3771 8.26962L64.2271 5.86962C62.7871 4.28962 61.2271 2.73962 59.9571 0.999619L59.8271 0.599619C59.8247 0.622887 59.8247 0.646352 59.8271 0.669619V0.729619C59.8628 0.841629 59.9327 0.939588 60.0271 1.00962C60.0946 1.07606 60.1771 1.12529 60.2676 1.15313C60.3581 1.18098 60.454 1.18664 60.5471 1.16962C60.6257 1.1331 60.6943 1.07822 60.7471 1.00962L60.8371 0.919619V1.02962C60.8371 1.11962 60.7671 1.20962 60.7371 1.29962C60.6815 1.45314 60.6644 1.61794 60.6871 1.77962V3.08962C60.7334 4.01129 60.6424 4.93472 60.4171 5.82962C60.1122 6.73129 59.5822 7.54017 58.8771 8.17962C58.2471 8.81962 57.5571 9.39962 56.8771 9.94962C56.771 10.0245 56.6407 10.0569 56.5118 10.0405C56.383 10.0241 56.2649 9.96003 56.1809 9.86097C56.0969 9.76191 56.053 9.635 56.0579 9.5052C56.0627 9.37541 56.116 9.25213 56.2071 9.15962L56.2371 9.14962Z" fill="#C1CEBE"/>
</svg>

<svg xmlns="http://www.w3.org/2000/svg" width="71" height="136" fill="#c1cebe" xmlns:v="https://vecta.io/nano"><path d="M56.787 5.54l-.85-.22-1-.27-.67-.16-.74-.1a25.76 25.76 0 0 0-9.35.12 35.15 35.15 0 0 0-6.49 1.9 42.66 42.66 0 0 0-7.08 3.72 49.73 49.73 0 0 0-13.66 13.44 29.48 29.48 0 0 0-4.44 9.86l-.26 1.36-.17 1.42a20.13 20.13 0 0 0 0 2.83 18.4 18.4 0 0 0 1.24 5.64 16.25 16.25 0 0 0 1.33 2.61c.523.836 1.13 1.617 1.8 2.33a13.99 13.99 0 0 0 1.08 1 10.49 10.49 0 0 0 1.26.86 11.06 11.06 0 0 0 2.72 1.14 12.37 12.37 0 0 0 6 .2c.982-.233 1.928-.6 2.8-1.1a9.12 9.12 0 0 0 2.3-1.91 5.5 5.5 0 0 0 1.4-5.31 6.14 6.14 0 0 0-1.62-2.39 9.73 9.73 0 0 0-1.2-1l-.28-.2-.38-.2-.75-.43a16 16 0 0 0-12.62-.38 18.48 18.48 0 0 0-5.7 3.33l-.75.7-.08.08-.93.96-.52.63c-.7.863-1.36 1.775-1.94 2.73a30.28 30.28 0 0 0-3.94 13c-.1 1.13-.14 2.32-.13 3.4l.06 1.78.13 1.68a33.82 33.82 0 0 0 1.35 6.68 24.15 24.15 0 0 0 6.92 11.12c.4.38.84.67 1.26 1l.24.18s.13.1 0 0l.37.23.74.47a4.49 4.49 0 0 0 .7.38l.66.32c.43.22 1 .38 1.45.58a17.8 17.8 0 0 0 6.18.94c4.15-.08 8.23-1.74 10.56-4.78l.8-1.17a5.52 5.52 0 0 0 .52-1.12 2.12 2.12 0 0 0 .11-.86 2.86 2.86 0 0 0-.29-.93l-.14-.26-.08-.13s-.1-.15 0 0l-.06-.08-.48-.67a6.54 6.54 0 0 0-.8-.78 6.48 6.48 0 0 0-2.22-1.19 9.66 9.66 0 0 0-5.23-.12 9.19 9.19 0 0 0-2.4 1 3.8 3.8 0 0 0-.54.33c-.16.1-.4.24-.48.34l-.6.5c-.18.16-.3.3-.45.43a17.83 17.83 0 0 0-4.67 9.47c-.16.9-.3 1.77-.4 2.66v.25s0-.13 0 0v1.06l-.06 1.4a18.23 18.23 0 0 0 .05 2.62c-.01.852.04 1.705.15 2.55.875 6.202 3.217 12.105 6.83 17.22 2.797 3.98 6.277 7.435 10.28 10.2.85.54 1.64 1.1 2.42 1.55l2.25 1.18a19.44 19.44 0 0 0 2 .88l1.7.7 3.2 1h.08a.84.84 0 0 1 .296.144.85.85 0 0 1 .218.247c.056.096.092.2.107.3a.84.84 0 0 1-.164.624.83.83 0 0 1-.246.217.82.82 0 0 1-.311.107c-.1.015-.22.008-.328-.02l-3.45-.77a38.45 38.45 0 0 1-9.14-4 41.64 41.64 0 0 1-19.46-28.999 21.44 21.44 0 0 1-.31-2.89 22.63 22.63 0 0 1-.11-2.92v-2.95c.1-1 .24-2 .42-3a21.65 21.65 0 0 1 5.79-11.65l.68-.62.76-.56a8.09 8.09 0 0 1 .8-.56 6.9 6.9 0 0 1 .79-.48c1.076-.585 2.226-1.02 3.42-1.3a13.57 13.57 0 0 1 7.4.25 10.39 10.39 0 0 1 3.47 1.89 9.83 9.83 0 0 1 1.5 1.53l.48.67.06.08.14.22.13.23a10.53 10.53 0 0 1 .25.47 6.7 6.7 0 0 1 .57 2.24 6 6 0 0 1-.28 2.42c-.223.668-.522 1.3-.9 1.9-.35.54-.73 1.06-1.1 1.6a15.56 15.56 0 0 1-6.09 4.61 19.58 19.58 0 0 1-7.41 1.56 20.89 20.89 0 0 1-7.49-1.25c-.6-.25-1.2-.44-1.8-.75l-.9-.47c-.287-.14-.565-.302-.83-.48l-1.1-.72a1.38 1.38 0 0 1-.17-.12l-.1-.07-.2-.15c-.5-.4-1-.77-1.47-1.22a27.55 27.55 0 0 1-7.7-12.83 37 37 0 0 1-1.36-7.35C.08 68.3.07 67.67.01 67s0-1.2 0-1.8c0-1.3.1-2.5.22-3.75a33.12 33.12 0 0 1 4.63-14.08 25.96 25.96 0 0 1 2.26-3l.64-.73.62-.63.3-.32.08-.08.12-.1.18-.16.72-.62a21 21 0 0 1 6.55-3.71 18.24 18.24 0 0 1 14.55.74 10.2 10.2 0 0 1 5.12 5.48 6.52 6.52 0 0 1 0 4 8.94 8.94 0 0 1-1.87 3.28 11.12 11.12 0 0 1-2.86 2.31 13.41 13.41 0 0 1-3.37 1.2 14.24 14.24 0 0 1-6.9-.28 14.61 14.61 0 0 1-9.36-9 21 21 0 0 1-.81-12.28 31.15 31.15 0 0 1 4.71-10.44 51.33 51.33 0 0 1 14.13-13.82 45.92 45.92 0 0 1 7.33-3.85 36.74 36.74 0 0 1 6.78-2 27.34 27.34 0 0 1 10-.17l.82.12.68.16 1 .26.85.2a.85.85 0 0 1 .707 1.048.85.85 0 0 1-1.117.592l.04-.02zm-.55 3.6c.695-.5 1.363-1.06 2-1.64a4.65 4.65 0 0 0 1.3-2 7.87 7.87 0 0 0 .15-2.44l-.07-1.3a2.2 2.2 0 0 1 .03-.76c0-.12.06-.23.1-.35l.07-.2c.02-.056.048-.1.08-.16l.1-.1a.62.62 0 0 1 .28-.2.59.59 0 0 1 .53.17.6.6 0 0 1 .15.28v.2l-.13-.4a48.6 48.6 0 0 0 4.57 4.38 47.39 47.39 0 0 1 4.7 4.54 1.22 1.22 0 0 1-.06 1.68 1.21 1.21 0 0 1-.73.35h-.08c-2.173 0-4.343-.043-6.5-.13l-3.25-.3a31.74 31.74 0 0 1-3.25-.53.54.54 0 0 1 0-1 31.68 31.68 0 0 1 3.26-.42l3.26-.16 6.5.13-.92 1.87-.94-1.22-1-1.2-2.15-2.4L59.957 1l-.13-.4a.34.34 0 0 0 0 .07v.06a.56.56 0 0 0 .2.28.59.59 0 0 0 .52.16.54.54 0 0 0 .2-.16l.1-.1V1c0 .1-.07.18-.1.27a1 1 0 0 0-.05.48v1.3a9.31 9.31 0 0 1-.27 2.74 5.59 5.59 0 0 1-1.54 2.35c-.63.64-1.32 1.22-2 1.77a.52.52 0 0 1-.67-.79l.03-.01z"/></svg>
